X: 41778
T: Veera's
R: jig
M: 6/8
K: Amajor
f>gf fge|f>gf fge|f>gf fge|bge age|
[1 f>gf fge|f>gf fge|f>gf fge|bge age:|
[2 f>gf fge|a>ga age|f>gf fge|bge age||
c2(c c)BG|A3 AGE|F2F FEG|BGB eBe|
c2(c c)BG|A3 AGE|F2E GEB|eBe gbe|
fgc ^dBG|A3 AGE|F2F FEG|BGB eBe|
c2(c c)BG|A3 AGE|F2E GEB|eBe gbe||

